x-pack/solutions/search/plugins/enterprise_search/public/assets/client_libraries/java.svg

<svg width="24" height="24" viewBox="0 0 24 24" fill="none" xmlns="http://www.w3.org/2000/svg">
<path d="M8.92816 18.3973C5.32966 19.4027 11.1176 21.4796 15.6997 19.5165C14.9492 19.2247 14.4109 18.8882 14.4109 18.8882C12.3677 19.2744 11.4199 19.3048 9.5651 19.0929C8.03435 18.9176 8.92816 18.3973 8.92816 18.3973ZM15.1511 16.4361C12.4429 16.9571 10.8785 16.9404 8.89722 16.7361C7.36516 16.5776 8.3681 15.8351 8.3681 15.8351C4.40491 17.1506 10.5744 18.6433 16.1135 17.0231C15.5248 16.8157 15.1511 16.4361 15.1511 16.4361ZM17.2734 5.07824C17.2736 5.07824 9.26135 7.07868 13.0879 11.4883C14.2174 12.7886 12.7916 13.9577 12.7916 13.9577C12.7916 13.9577 15.6583 12.4781 14.342 10.6245C13.1122 8.89668 12.1695 8.0383 17.2734 5.07824ZM19.148 20.2927C19.148 20.2927 19.8097 20.8384 18.419 21.2601C15.7749 22.0611 7.41166 22.3026 5.08872 21.2921C4.25435 20.9287 5.81979 20.4249 6.31235 20.3186C6.82591 20.2074 7.11916 20.2277 7.11916 20.2277C6.19066 19.5739 1.11672 21.5121 4.54254 22.068C13.884 23.5822 21.5707 21.3861 19.148 20.2927ZM15.9375 14.6053C16.3865 14.2989 17.0068 14.0329 17.0068 14.0329C17.0068 14.0329 15.2398 14.3488 13.4794 14.4967C11.3242 14.6775 9.01254 14.7131 7.8521 14.5579C5.10485 14.1906 9.35829 13.1801 9.35829 13.1801C9.35829 13.1801 7.70604 13.0684 5.67504 14.0509C3.27279 15.2124 11.6171 15.7419 15.9375 14.6053ZM16.9892 17.445C16.9689 17.4994 16.9014 17.5605 16.9014 17.5605C22.7651 16.0191 20.6092 12.1269 17.8055 13.1121C17.5595 13.1991 17.4305 13.4014 17.4305 13.4014C17.4305 13.4014 17.586 13.3387 17.9327 13.2664C19.35 12.9711 21.3806 15.1637 16.9892 17.445ZM12.0339 13.1377C11.1688 11.1823 8.23516 9.47155 12.0352 6.47043C16.7735 2.73036 14.3422 0.297363 14.3422 0.297363C15.3228 4.16136 10.8827 5.32855 9.27991 7.73493C8.18848 9.37461 9.8156 11.1366 12.0339 13.1377ZM17.1478 22.8405C13.5502 23.5177 9.11266 23.4388 6.48148 23.0044C6.48148 23.0044 7.02035 23.4506 9.7901 23.6289C14.0043 23.8984 20.4776 23.4789 20.6306 21.4847C20.6308 21.4847 20.3362 22.2407 17.1478 22.8405Z" fill="#EA2D2E"/>
</svg>

<svg xmlns="http://www.w3.org/2000/svg" width="24" height="24" fill="none"><path fill="#EA2D2E" d="M8.928 18.397c-3.598 1.006 2.19 3.083 6.772 1.12-.75-.292-1.29-.629-1.29-.629-2.042.386-2.99.417-4.845.205-1.53-.175-.637-.696-.637-.696m6.223-1.96c-2.708.52-4.272.503-6.254.3-1.532-.16-.529-.902-.529-.902-3.963 1.316 2.206 2.808 7.745 1.188a2.8 2.8 0 0 1-.962-.587m2.122-11.359s-8.012 2-4.185 6.41c1.13 1.3-.296 2.47-.296 2.47s2.866-1.48 1.55-3.334c-1.23-1.727-2.173-2.586 2.931-5.546m1.875 15.215s.662.545-.729.967c-2.644.801-11.007 1.043-13.33.032-.835-.363.73-.867 1.223-.973.514-.112.807-.091.807-.091-.928-.654-6.002 1.284-2.576 1.84 9.341 1.514 17.028-.682 14.605-1.775m-3.21-5.688c.449-.306 1.069-.572 1.069-.572s-1.767.316-3.528.464c-2.155.18-4.466.216-5.627.06-2.747-.366 1.506-1.377 1.506-1.377s-1.652-.112-3.683.87c-2.402 1.162 5.942 1.692 10.263.555m1.051 2.84c-.02.054-.088.116-.088.116 5.864-1.542 3.708-5.434.904-4.449-.245.087-.375.29-.375.29s.156-.063.503-.136c1.417-.295 3.448 1.898-.944 4.179m-4.955-4.307c-.865-1.956-3.799-3.666.001-6.668C16.773 2.73 14.342.297 14.342.297c.98 3.864-3.46 5.032-5.062 7.438-1.092 1.64.536 3.402 2.754 5.403m5.114 9.702c-3.598.678-8.035.599-10.667.164 0 0 .54.447 3.31.625 4.213.27 10.687-.15 10.84-2.144 0 0-.295.756-3.483 1.355"/></svg>
